1.Normal/chrome/Icons/forget.svg

<svg xmlns="http://www.w3.org/2000/svg" width="16" height="16" viewBox="0 0 16 16">
   <path
   style="fill:context-fill;fill-opacity:context-fill-opacity"
   d="M 1.5019531 0 L 1.4121094 0.0078125 C 1.2080094 0.0448525 1.0468056 0.20606625 1.0097656 0.41015625 L 1.0019531 0.5 L 1.0019531 4.5 L 1.0097656 4.5898438 C 1.0468056 4.7939336 1.2080094 4.9551375 1.4121094 4.9921875 L 1.5019531 5 L 5.5019531 5 L 5.5917969 4.9921875 C 5.8250365 4.9498425 6.0019531 4.74546 6.0019531 4.5 C 6.0019531 4.25454 5.8250369 4.0501525 5.5917969 4.0078125 L 5.5019531 4 L 2.2597656 3.9980469 C 3.3004656 2.5045369 4.8874025 1.4619636 6.7265625 1.1210938 C 8.5442609 0.7841996 10.32398 1.1882618 11.767578 2.1113281 L 12.494141 1.3847656 C 10.813425 0.24361054 8.700613 -0.26281209 6.5449219 0.13671875 C 4.7512419 0.46915875 3.1668931 1.3877975 2.0019531 2.7109375 L 2.0019531 0.5 L 1.9941406 0.41015625 C 1.9570856 0.20606635 1.7958869 0.0448525 1.5917969 0.0078125 L 1.5019531 0 z M 15.476562 0 A 0.5 0.5 0 0 0 15.146484 0.14648438 L 0.14648438 15.146484 A 0.5 0.5 0 0 0 0.14648438 15.853516 A 0.5 0.5 0 0 0 0.85351562 15.853516 L 15.853516 0.85351562 A 0.5 0.5 0 0 0 15.853516 0.14648438 A 0.5 0.5 0 0 0 15.476562 0 z M 14.615234 3.5058594 L 13.892578 4.2285156 C 14.367933 4.9694359 14.71445 5.8095462 14.884766 6.7285156 C 15.589266 10.529786 13.078544 14.182119 9.2773438 14.886719 C 7.4565317 15.224174 5.6733956 14.818979 4.2285156 13.892578 L 3.5039062 14.617188 C 5.1855727 15.761133 7.3008331 16.269148 9.4589844 15.869141 C 13.803284 15.063941 16.672286 10.889232 15.867188 6.5449219 C 15.658549 5.4192589 15.220463 4.3951763 14.615234 3.5058594 z M 7.5019531 4 L 7.4121094 4.0078125 C 7.2080094 4.0448525 7.0468056 4.2060665 7.0097656 4.4101562 L 7 4.5 L 7 6.8789062 L 8 5.8789062 L 8 4.5 L 7.9941406 4.4101562 C 7.9570887 4.2060669 7.7958869 4.0448525 7.5917969 4.0078125 L 7.5019531 4 z M 0.52734375 7.0039062 C 0.25145375 6.9922762 0.017499375 7.2065219 0.005859375 7.4824219 C -0.021950635 8.1420419 0.05000875 8.9930375 0.13671875 9.4609375 C 0.34489329 10.584144 0.78159872 11.606165 1.3847656 12.494141 L 2.1054688 11.773438 C 1.6323675 11.034145 1.2889412 10.195484 1.1191406 9.2792969 C 1.0454606 8.8817969 0.9813993 8.1033275 1.0058594 7.5234375 C 1.0174894 7.2475375 0.80324375 7.0155363 0.52734375 7.0039062 z M 9.1210938 9 L 8.1210938 10 L 10 10 L 10.091797 9.9960938 C 10.325095 9.9537954 10.5 9.7454001 10.5 9.5 C 10.5 9.2545 10.325097 9.0541186 10.091797 9.0117188 L 10.001953 9 L 9.1210938 9 z " />
</svg>

<svg xmlns="http://www.w3.org/2000/svg" width="16" height="16">
  <path style="fill:context-fill;fill-opacity:context-fill-opacity" d="m1.502 0-.09.008A.501.501 0 0 0 1.01.41L1.002.5v4l.008.09a.501.501 0 0 0 .402.402l.09.008h4l.09-.008a.5.5 0 0 0 0-.984L5.502 4 2.26 3.998a6.977 6.977 0 0 1 4.467-2.877 6.967 6.967 0 0 1 5.04.99l.727-.726A7.97 7.97 0 0 0 6.544.137 7.974 7.974 0 0 0 2.003 2.71V.5L1.994.41a.501.501 0 0 0-.402-.402L1.502 0zm13.975 0a.5.5 0 0 0-.33.146l-15 15a.5.5 0 0 0 0 .708.5.5 0 0 0 .707 0l15-15a.5.5 0 0 0 0-.708.5.5 0 0 0-.377-.146zm-.862 3.506-.722.723a6.97 6.97 0 0 1 .992 2.5 7 7 0 0 1-5.608 8.158 6.968 6.968 0 0 1-5.048-.994l-.725.724A8 8 0 0 0 14.615 3.506zM7.502 4l-.09.008a.501.501 0 0 0-.402.402L7 4.5v2.379l1-1V4.5l-.006-.09a.501.501 0 0 0-.402-.402L7.502 4zM.527 7.004a.5.5 0 0 0-.521.478 10.3 10.3 0 0 0 .13 1.979 7.968 7.968 0 0 0 1.249 3.033l.72-.72a6.972 6.972 0 0 1-.986-2.495 9.377 9.377 0 0 1-.113-1.756.499.499 0 0 0-.479-.52zM9.121 9l-1 1H10l.092-.004A.503.503 0 0 0 10.5 9.5a.495.495 0 0 0-.408-.488L10.002 9h-.88z"/>
</svg>
